X:1
T:Christe eleison - Lotti
T:James Gibb editions
T:#
%%score [ 1 2 3 4 ]
L:1/8
Q:1/4=200
M:none
K:F
V:1 treble nm="Soprano" snm="S"
V:2 treble nm="Alto" snm="A"
V:3 treble-8 nm="Tenor" snm="T"
V:4 bass nm="Bass" snm="B"
V:1
"^Christe eleison""^Antonio Lotti\n(1667-1740)"!p! c8 c8 | z4 c4 (A4 c4 |!>(! d6 c2!>)! B4 c2 d2 | %3
w: Chri- ste|e- le\- *||
 G4 A2 B2 c4!>(! B4-!>)! | B4 A4 G6) G2 | A16- | A16 | z16 | z8!mp! c8 | c16- | c8 z4 c4 | %11
w: |* * * i-|son,|||Chri-|ste|* e-|
 (A4 B2 c2 d6 c2 | B4 c2 d2 G4!>(! c4- | c4)!>)! =B4!p! c8- | c8 z4 c4 | (A4 B2 c2 d4 c4 | %16
w: le\- * * * *||* i\- son,|* e-|le\- * * * *|
 B12 c2 d2 | c4 A4!>(! B6 A2!>)! | F4) G4 A8- | A8 z8 | z4!f! d4 (B6 d2 | _e4) d4 c8 | %22
w: ||* i- son,||e- le\- *|* i- son,|
 z4!pp! c4 (A4 c4 | d6 c2 B4 c2 d2 | %24
w: e- le\- *||
[Q:1/4=197] G4[Q:1/4=194] A2[Q:1/4=193] B2[Q:1/4=189]!>(! c6!>)![Q:1/4=185] B2) |[Q:1/4=177] A16 | %26
w: |i-|
[Q:1/4=170] G16 |] %27
w: son.|
V:2
 z8!p! F8 | F8 z4 F4 | (D4 F4!>(! G6 F2!>)! | E4 F2 G2 C4 D2 E2 | F2 C2!>(! F8)!>)! E4 | F16- | %6
w: Chri-|ste e-|le\- * * *||* * * i-|son,|
 F16 | z8 G8 | G8 z8 | z8 z4!mp! G4 | (E4 G4!>(! A6 G2!>)! | F4 G2 A2 D4 E2) F2 | G8 z4 E4 | %13
w: |Chri-|ste|e-|le\- * * *|* * * * * i-|son, e-|
 A4 F4!p! G8- | G8 z8 | z16 | z16 | z4 D4!>(! (B,6 C2!>)! | D8) E8 | F4!f! A4 (F4 A4 | %20
w: le- i\- son,||||e- le\- *|* i-|son, e- le\- *|
!>(! B6 A2!>)! G4 B4 | c4!>(! B8!>)! A4) | G8 F4!pp! A4 | (F4 A4 B6) A2 | G8 G8- | G4 (F2 E2 F8- | %26
w: ||i- son, e-|le\- * * i-|son, e\-|* le\- * *|
 F4 E2) D2 E8 |] %27
w: * * i- son.|
V:3
 z16 | z16 | z16 | z16 | z8!p! c8 | c12 c4 | (A4 c4!>(! d6 c2!>)! | B4 c2 d2 G4 A2 B2 | %8
w: ||||Chri-|ste e-|le\- * * *||
 c4 B4 A2 F2 f4- | f4 e2) d2 e8- | e8 z8 | f8 f8 | z4 g4 (e4 g4 | f6) f2 e4!p! g4 | (e4 g4 a6 g2 | %15
w: |* * i- son,||Chri- ste|e- le\- *|* i- son, e-|le\- * * *|
 f4 g2 a2 d8- | d4 e2 f2 g2 d2 g4- | g2 f2 f6 e2 e4- | e2 d2 d8) ^c4 | d8 z4!f! d4 | %20
w: |||* * * i-|son, e-|
 (B4 d4!>(! _e6 d2!>)! | c4 d2 _e2 f2 c2!>(! f4- | f4)!>)! =e4 f8 | z4!pp! f4 (d4 e2 f2 | %24
w: le\- * * *||* i- son,|e- le\- * *|
 g4 d4 e6) d2 | c16- | c16 |] %27
w: * * * i-|son.||
V:4
 z16 | z16 | z16 | z16 | z16 |!p! F,8 F,8 | z4 F,4 (D,4 F,4 | G,6 F,2 E,4 F,2 G,2 | %8
w: |||||Chri- ste|e- le\- *||
 C,4 D,2 E,2 F,4 G,4 | A,6) B,2 C8 | z4!mp! C4 (A,4 C4 |!>(! D6 C2!>)! B,4 C2 D2 | G,4 A,2 B,2 C8 | %13
w: |* i- son,|e- le\- *|||
 D6) D2!p! C8 | z4 C4 (A,4 C4 |!>(! D6 C2!>)! B,4 C2 D2 | G,12 A,2 B,2 | A,4 D4 G,6 A,2 | %18
w: * i\- son,|e- le\- *||||
 B,8) A,8 | D,16 | z16 | z16 | z8 z4!pp! F,4 | (D,4 F,4 G,6 F,2 | E,4 F,2 G,2 C,4 D,2 E,2) | F,16 | %26
w: * i-|son,|||e-|le\- * * *||i-|
 C,16 |] %27
w: son.|

